packages/ui-icons/src/Basic/16/Cargoes_16.svg

<svg xmlns="http://www.w3.org/2000/svg" viewBox="0 0 20 20"><path d="M15.27 12 12 9.49a2.46 2.46 0 0 0-1-4.39V3h2V2H8v1h2v3h.5A1.52 1.52 0 0 1 12 7.52 1.47 1.47 0 0 1 10.5 9 1.47 1.47 0 0 1 9 7.52H8a2.46 2.46 0 0 0 1 1.93L5.61 12H3v6h15v-6ZM10 10h1l2.62 2H7.29Zm7 7H4v-4h13Z"/></svg>

<svg id="ready" xmlns="http://www.w3.org/2000/svg" viewBox="0 0 20 20"><title>Megaicons_work_16_1.8_cp</title><path d="M15.27,12,12,9.49A2.46,2.46,0,0,0,11,5.1V3h2V2H8V3h2V6L10.5,6A1.52,1.52,0,0,1,12,7.52,1.47,1.47,0,0,1,10.5,9h0A1.47,1.47,0,0,1,9,7.52H8A2.46,2.46,0,0,0,9,9.45L5.61,12H3v6H18V12ZM10,10h1l2.62,2H7.29Zm7,7H4V13H17Z"/></svg>
